images/presentation.svg

<svg height="65" viewBox="0 0 66 65" width="66" xmlns="http://www.w3.org/2000/svg"><g fill="#731982" transform=""><path d="m17.0961564 13.9671959c-1.2424847-1.2787772-2.9545242-1.9985703-4.7413723-1.9934849h-.3400891c-1.7850538-.0035736-3.49460894.7160822-4.73585141 1.9934849-1.16767611 1.1954862-1.78767624 2.8180102-1.71369582 4.4839666l.1291897 2.9599897c.19571687 3.387165 3.04189289 6.01619 6.44844303 5.9562645h.0839181c3.4065501.0599255 6.2527261-2.5690995 6.448443-5.9562645l.1347106-2.9599897c.0739805-1.6659564-.5460197-3.2884804-1.7136958-4.4839666zm-.6271773 7.3526936c-.1496172 2.2077598-2.0209354 3.9053282-4.2422805 3.8484264h-.0839181c-2.22134509.0569018-4.09266338-1.6406666-4.2422805-3.8484264l-.03864649-.8983327c2.10485351-.0933243 4.12592699-.848578 5.77268149-2.1573179.6790741 1.0000411 1.7041722 1.7159858 2.8797157 2.0110777zm-1.3846486-5.1975748c-.0614203-.4689583-.4172441-.8462415-.8833483-.936817-.464448-.0956609-.9378676.117377-1.172645.5277842-.0143544.0230906-1.3846485 2.181508-5.25150597 2.5113732-.0095236-1.0187335.38398049-2.0002197 1.09535196-2.7323828.82441246-.8459666 1.95868701-1.3222094 3.14251181-1.3194605h.3400891c1.1838248-.0027489 2.3180993.4734939 3.1425118 1.3194605.6441542.6683892 1.0264784 1.5445934 1.077685 2.4695902-.7640964-.3400359-1.3183974-1.0239563-1.4906504-1.8395478z"/><path d="m59.4316853 40.0527222c-1.2424828-1.2787771-2.9545198-1.9985703-4.7413652-1.9934849h-.3400886c-1.7850511-.0035735-3.4946037.7160822-4.7358443 1.9934849-1.1676743 1.1954862-1.7878116 2.8180103-1.7136932 4.4839666l.1291895 2.9599897c.1957166 3.387165 3.0418883 6.0161901 6.4484333 5.9562646h.083918c3.406545.0599255 6.2527168-2.5690996 6.4484333-5.9562646l.1347105-2.9599897c.0739803-1.6659563-.5460189-3.2884804-1.7136933-4.4839666zm-.4946743 4.394903-.1325021 2.9577906c-.1496169 2.2077598-2.0209324 3.9053282-4.2422741 3.8484264h-.083918c-2.2213417.0569018-4.0926572-1.6406666-4.2422741-3.8484264l-.1325021-2.9632884c-.0426491-1.0653269.3566514-2.1011034 1.1041838-2.8643288.8244113-.8459666 1.9586841-1.3222094 3.1425071-1.3194605h.3400886c1.1838231-.0027489 2.3180959.4734939 3.1425071 1.3194605.7489126.7645999 1.1483511 1.8027129 1.1041838 2.8698266z"/><path d="m33.7173217 15.8122494c-1.171144-1.1268588-3.0296392-1.1268588-4.2007831 0l-12.1851362 12.1211629c-.2049229.2038471-.4829741.3183923-.7727585.3181208h-11.10130955c-3.01244856.0035287-5.45378708 2.4320499-5.45733435 5.4286828v15.2003118c0 1.7989298 1.46597644 3.2572097 3.27440061 3.2572097.3717809 0 .74083314-.062837 1.09146687-.1856609v1.2713975c0 .599598.48870429 1.0857365 1.09146687 1.0857365h13.09760245c.6027626 0 1.0914669-.4861385 1.0914669-1.0857365v-17.6041326c-.0001365-.2746913.1043715-.5393396.2925131-.7404723l13.8496231-14.8170468c1.1600928-1.1929531 1.1281674-3.0955707-.0712182-4.2495729zm-1.4875329 2.731306c-.0039566.0038001-.0079132.0076002-.0118697.0112645l-13.8812757 14.8463617c-.5621054.6032624-.8741285 1.3955787-.8731735 2.2181598v16.518396h-10.91466868v-16.2860484c0-.599598-.48870429-1.0857365-1.09146687-1.0857365s-1.09146687.4861385-1.09146687 1.0857365v13.0288387c0 .5995981-.48870429 1.0857366-1.09146687 1.0857366s-1.09146687-.4861385-1.09146687-1.0857366v-15.2003118c0-1.7989297 1.46597644-3.2572097 3.27440061-3.2572097h11.10130955c.8692169.0027144 1.7033705-.3409212 2.3160927-.9543624l12.1851361-12.1211629c.3322152-.3135065.8531178-.3135065 1.185333 0 .327713.3345426.3208913.8700821-.0154169 1.1960745z"/><path d="m11.7598684 31.6447368c-.5903988 0-1.0690789.4923567-1.0690789 1.0996241v13.1954887c0 .6072674.4786801 1.0996241 1.0690789 1.0996241.5903989 0 1.069079-.4923567 1.069079-1.0996241v-13.1954887c0-.6072674-.4786801-1.0996241-1.069079-1.0996241z"/><path d="m35.4835831 40.0527104c-1.2417559-1.2774038-2.9520181-1.9970602-4.7378103-1.9934866h-.3402298c-1.7857922-.0035736-3.4960544.7160828-4.7378103 1.9934866-1.1681591 1.1954873-1.7885538 2.8180128-1.7144047 4.4839705l.1292432 2.9599923c.1957978 3.3871681 3.0431511 6.0161954 6.4511103 5.9562699h.0839528c3.4079592.0599255 6.2553125-2.5691018 6.4511103-5.9562699l.1292432-2.9599923c.0741491-1.6659577-.5462456-3.2884832-1.7144047-4.4839705zm-.4893565 4.3949069-.132557 2.9577932c-.1496791 2.2077617-2.0217714 3.9053316-4.2440353 3.8484298h-.0839528c-2.2222639.0569018-4.0943562-1.6406681-4.2440353-3.8484298l-.132557-2.963291c-.0426668-1.0653278.3567994-2.1011052 1.1046422-2.8643313.8247534-.8459674 1.9594971-1.3222106 3.1438116-1.3194617h.3402298c1.1843145-.0027489 2.3190582.4734943 3.1438116 1.3194617.7492236.7646005 1.1488279 1.8027145 1.1046422 2.8698291z"/><path d="m36.2100674 54.3092105h-11.268819c-2.9093487.00294-5.267197 2.3145559-5.2701958 5.1668586v4.454852c0 .5903988.4882537 1.0690789 1.0904606 1.0690789.6022068 0 1.0904605-.4786801 1.0904605-1.0690789v-4.454852c.001772-1.6720395 1.3839307-3.0269634 3.0892747-3.0287007h11.268819c1.7054803.0017373 3.0875027 1.3566612 3.0892747 3.0287007v4.454852c0 .5903988.4882537 1.0690789 1.0904605 1.0690789.6022069 0 1.0904606-.4786801 1.0904606-1.0690789v-4.454852c-.0029988-2.8523027-2.3608471-5.1639186-5.2701958-5.1668586z"/><path d="m60.1574359 54.3092105h-11.2688191c-2.9093487.00294-5.267197 2.3145559-5.2701957 5.1668586v4.454852c0 .5903988.4882537 1.0690789 1.0904605 1.0690789s1.0904605-.4786801 1.0904605-1.0690789v-4.454852c.001772-1.6720395 1.3839307-3.0269634 3.0892747-3.0287007h11.2688191c1.7054802.0017373 3.0875026 1.3566612 3.0892746 3.0287007v4.454852c0 .5903988.4882537 1.0690789 1.0904606 1.0690789.6022068 0 1.0904605-.4786801 1.0904605-1.0690789v-4.454852c-.0029988-2.8523027-2.3608471-5.1639186-5.2701957-5.1668586z"/><path d="m61.7999934 0h-38.073671c-1.7812458.01741627-3.2125338 1.47806968-3.1999239 3.26555024v16.32775116c0 .6011334.4856833 1.0885168 1.0847199 1.0885168.5990367 0 1.08472-.4873834 1.08472-1.0885168v-13.06220092h40.134639v26.12440192c.0139657.5857581-.4467691 1.0724611-1.030484 1.0885167h-37.016069c-.5990366 0-1.08472.4873834-1.08472 1.0885168s.4856834 1.0885167 1.08472 1.0885167h37.016069c1.7812458-.0174162 3.2125338-1.4780696 3.1999239-3.2655502v-29.38995216c.0126099-1.78748056-1.4186781-3.24813397-3.1999239-3.26555024zm1.0307933 4.35406699h-40.1352576l.0003093-1.08851675c-.0139658-.58575807.4467691-1.07246113 1.030484-1.08851675h38.073671c.5837149.01605562 1.0444497.50275868 1.030484 1.08851675z"/><path d="m59.6546053 14.1118421c-.5903989 0-1.069079.4830987-1.069079 1.0789474v15.375c0 .5958487.4786801 1.0789473 1.069079 1.0789473.5903988 0 1.0690789-.4830986 1.0690789-1.0789473v-15.375c0-.5958487-.4786801-1.0789474-1.0690789-1.0789474z"/><path d="m55.3782895 20.5263158c-.5903989 0-1.069079.4978273-1.069079 1.1118421v8.8947368c0 .6140148.4786801 1.1118421 1.069079 1.1118421.5903988 0 1.0690789-.4978273 1.0690789-1.1118421v-8.8947368c0-.6140148-.4786801-1.1118421-1.0690789-1.1118421z"/><path d="m51.1019737 18.3881579c-.5903989 0-1.069079.4946361-1.069079 1.1047149v11.0471491c0 .6100788.4786801 1.1047149 1.069079 1.1047149.5903988 0 1.0690789-.4946361 1.0690789-1.1047149v-11.0471491c0-.6100788-.4786801-1.1047149-1.0690789-1.1047149z"/><path d="m46.8256579 25.2302632c-.5903989 0-1.069079.4786801-1.069079 1.0690789v4.2763158c0 .5903988.4786801 1.0690789 1.069079 1.0690789.5903988 0 1.0690789-.4786801 1.0690789-1.0690789v-4.2763158c0-.5903988-.4786801-1.0690789-1.0690789-1.0690789z"/><path d="m60.6647687 8.7369672c-.50215-.33585828-1.1807901-.19998087-1.5157389.30353261l-3.7308814 5.61042219-3.4467487-2.5915329c-.4809767-.3655815-1.1664469-.270796-1.5310384.2114866-.0415271.0549263-.0777267.1135508-.108189.1753257l-4.2554342 8.535074-4.1592662 3.1317552c-.482889.3631159-.5806963 1.0498995-.2185636 1.5340998.3621326.4842002 1.0470564.5822731 1.5299455.2191571l4.3712729-3.2873568c.1376951-.1016341.2499822-.2340872.3278455-.3868123l3.7844295-7.5916025 3.318889 2.4994869c.4827525.363116 1.1678129.2651801 1.5299455-.2190201.0121576-.0161629.0237688-.0327366.0349702-.0494474l4.3712729-6.5747135c.3349488-.50351347.1994394-1.18399632-.3027106-1.5198546z"/><path d="m39.5253759 8.55263158h-13.1954887c-.6072674 0-1.099624.4786801-1.099624 1.06907895 0 .59039887.4923566 1.06907897 1.099624 1.06907897h13.1954887c.6072674 0 1.0996241-.4786801 1.0996241-1.06907897 0-.59039885-.4923567-1.06907895-1.0996241-1.06907895z"/><path d="m45.5427632 8.55263158h-2.1381579c-.5903989 0-1.069079.4786801-1.069079 1.06907895 0 .59039887.4786801 1.06907897 1.069079 1.06907897h2.1381579c.5903988 0 1.0690789-.4786801 1.0690789-1.06907897 0-.59039885-.4786801-1.06907895-1.0690789-1.06907895z"/></g></svg>

<?xml version="1.0" encoding="UTF-8"?>
<svg width="66px" height="65px" viewBox="0 0 66 65" version="1.1" xmlns="http://www.w3.org/2000/svg" xmlns:xlink="http://www.w3.org/1999/xlink">
    <!-- Generator: Sketch 48.2 (47327) - http://www.bohemiancoding.com/sketch -->
    <title>005-presentation</title>
    <desc>Created with Sketch.</desc>
    <defs></defs>
    <g id="Desktop-HD-Copy-25" stroke="none" stroke-width="1" fill="none" fill-rule="evenodd" transform="translate(-760.000000, -1479.000000)">
        <g id="Group-10" transform="translate(760.000000, 1479.000000)" fill="#731982" fill-rule="nonzero">
            <g id="005-presentation">
                <path d="M17.0961564,13.9671959 C15.8536717,12.6884187 14.1416322,11.9686256 12.3547841,11.973711 L12.014695,11.973711 C10.2296412,11.9701374 8.52008606,12.6897932 7.27884359,13.9671959 C6.11116748,15.1626821 5.49116735,16.7852061 5.56514777,18.4511625 L5.69433747,21.4111522 C5.89005434,24.7983172 8.73623036,27.4273422 12.1427805,27.3674167 L12.2266986,27.3674167 C15.6332487,27.4273422 18.4794247,24.7983172 18.6751416,21.4111522 L18.8098522,18.4511625 C18.8838327,16.7852061 18.2638325,15.1626821 17.0961564,13.9671959 Z M16.4689791,21.3198895 C16.3193619,23.5276493 14.4480437,25.2252177 12.2266986,25.1683159 L12.1427805,25.1683159 C9.92143541,25.2252177 8.05011712,23.5276493 7.9005,21.3198895 L7.86185351,20.4215568 C9.96670702,20.3282325 11.9877805,19.5729788 13.634535,18.2642389 C14.3136091,19.26428 15.3387072,19.9802247 16.5142507,20.2753166 L16.4689791,21.3198895 Z M15.0843305,16.1223147 C15.0229102,15.6533564 14.6670864,15.2760732 14.2009822,15.1854977 C13.7365342,15.0898368 13.2631146,15.3028747 13.0283372,15.7132819 C13.0139828,15.7363725 11.6436887,17.8947899 7.77683123,18.2246551 C7.76730763,17.2059216 8.16081172,16.2244354 8.87218319,15.4922723 C9.69659565,14.6463057 10.8308702,14.1700629 12.014695,14.1728118 L12.3547841,14.1728118 C13.5386089,14.1700629 14.6728834,14.6463057 15.4972959,15.4922723 C16.1414501,16.1606615 16.5237743,17.0368657 16.5749809,17.9618625 C15.8108845,17.6218266 15.2565835,16.9379062 15.0843305,16.1223147 Z" id="Shape"></path>
                <path d="M59.4316853,40.0527222 C58.1892025,38.7739451 56.4771655,38.0541519 54.6903201,38.0592373 L54.3502315,38.0592373 C52.5651804,38.0556638 50.8556278,38.7753195 49.6143872,40.0527222 C48.4467129,41.2482084 47.8265756,42.8707325 47.900694,44.5366888 L48.0298835,47.4966785 C48.2256001,50.8838435 51.0717718,53.5128686 54.4783168,53.4529431 L54.5622348,53.4529431 C57.9687798,53.5128686 60.8149516,50.8838435 61.0106681,47.4966785 L61.1453786,44.5366888 C61.2193589,42.8707325 60.5993597,41.2482084 59.4316853,40.0527222 Z M58.937011,44.4476252 L58.8045089,47.4054158 C58.654892,49.6131756 56.7835765,51.310744 54.5622348,51.2538422 L54.4783168,51.2538422 C52.2569751,51.310744 50.3856596,49.6131756 50.2360427,47.4054158 L50.1035406,44.4421274 C50.0608915,43.3768005 50.460192,42.341024 51.2077244,41.5777986 C52.0321357,40.731832 53.1664085,40.2555892 54.3502315,40.2583381 L54.6903201,40.2583381 C55.8741432,40.2555892 57.008416,40.731832 57.8328272,41.5777986 C58.5817398,42.3423985 58.9811783,43.3805115 58.937011,44.4476252 Z" id="Shape"></path>
                <path d="M33.7173217,15.8122494 C32.5461777,14.6853906 30.6876825,14.6853906 29.5165386,15.8122494 L17.3314024,27.9334123 C17.1264795,28.1372594 16.8484283,28.2518046 16.5586439,28.2515331 L5.45733435,28.2515331 C2.44488579,28.2550618 0.00354726733,30.683583 0,33.6802159 L0,48.8805277 C0,50.6794575 1.46597644,52.1377374 3.27440061,52.1377374 C3.64618151,52.1377374 4.01523375,52.0749004 4.36586748,51.9520765 L4.36586748,53.223474 C4.36586748,53.823072 4.85457177,54.3092105 5.45733435,54.3092105 L18.5549368,54.3092105 C19.1576994,54.3092105 19.6464037,53.823072 19.6464037,53.223474 L19.6464037,35.6193414 C19.6462672,35.3446501 19.7507752,35.0800018 19.9389168,34.8788691 L33.7885399,20.0618223 C34.9486327,18.8688692 34.9167073,16.9662516 33.7173217,15.8122494 Z M32.2297888,18.5435554 C32.2258322,18.5473555 32.2218756,18.5511556 32.2179191,18.5548199 L18.3366434,33.4011816 C17.774538,34.004444 17.4625149,34.7967603 17.4634699,35.6193414 L17.4634699,52.1377374 L6.54880122,52.1377374 L6.54880122,35.851689 C6.54880122,35.252091 6.06009693,34.7659525 5.45733435,34.7659525 C4.85457177,34.7659525 4.36586748,35.252091 4.36586748,35.851689 L4.36586748,48.8805277 C4.36586748,49.4801258 3.87716319,49.9662643 3.27440061,49.9662643 C2.67163803,49.9662643 2.18293374,49.4801258 2.18293374,48.8805277 L2.18293374,33.6802159 C2.18293374,31.8812862 3.64891018,30.4230062 5.45733435,30.4230062 L16.5586439,30.4230062 C17.4278608,30.4257206 18.2620144,30.082085 18.8747366,29.4686438 L31.0598727,17.3474809 C31.3920879,17.0339744 31.9129905,17.0339744 32.2452057,17.3474809 C32.5729187,17.6820235 32.566097,18.217563 32.2297888,18.5435554 Z" id="Shape"></path>
                <path d="M11.7598684,31.6447368 C11.1694696,31.6447368 10.6907895,32.1370935 10.6907895,32.7443609 L10.6907895,45.9398496 C10.6907895,46.547117 11.1694696,47.0394737 11.7598684,47.0394737 C12.3502673,47.0394737 12.8289474,46.547117 12.8289474,45.9398496 L12.8289474,32.7443609 C12.8289474,32.1370935 12.3502673,31.6447368 11.7598684,31.6447368 Z" id="Shape"></path>
                <path d="M35.4835831,40.0527104 C34.2418272,38.7753066 32.531565,38.0556502 30.7457728,38.0592238 L30.405543,38.0592238 C28.6197508,38.0556502 26.9094886,38.7753066 25.6677327,40.0527104 C24.4995736,41.2481977 23.8791789,42.8707232 23.953328,44.5366809 L24.0825712,47.4966732 C24.278369,50.8838413 27.1257223,53.5128686 30.5336815,53.4529431 L30.6176343,53.4529431 C34.0255935,53.5128686 36.8729468,50.8838413 37.0687446,47.4966732 L37.1979878,44.5366809 C37.2721369,42.8707232 36.6517422,41.2481977 35.4835831,40.0527104 Z M34.9942266,44.4476173 L34.8616696,47.4054105 C34.7119905,49.6131722 32.8398982,51.3107421 30.6176343,51.2538403 L30.5336815,51.2538403 C28.3114176,51.3107421 26.4393253,49.6131722 26.2896462,47.4054105 L26.1570892,44.4421195 C26.1144224,43.3767917 26.5138886,42.3410143 27.2617314,41.5777882 C28.0864848,40.7318208 29.2212285,40.2555776 30.405543,40.2583265 L30.7457728,40.2583265 C31.9300873,40.2555776 33.064831,40.7318208 33.8895844,41.5777882 C34.638808,42.3423887 35.0384123,43.3805027 34.9942266,44.4476173 Z" id="Shape"></path>
                <path d="M36.2100674,54.3092105 L24.9412484,54.3092105 C22.0318997,54.3121505 19.6740514,56.6237664 19.6710526,59.4760691 L19.6710526,63.9309211 C19.6710526,64.5213199 20.1593063,65 20.7615132,65 C21.36372,65 21.8519737,64.5213199 21.8519737,63.9309211 L21.8519737,59.4760691 C21.8537457,57.8040296 23.2359044,56.4491057 24.9412484,56.4473684 L36.2100674,56.4473684 C37.9155477,56.4491057 39.2975701,57.8040296 39.2993421,59.4760691 L39.2993421,63.9309211 C39.2993421,64.5213199 39.7875958,65 40.3898026,65 C40.9920095,65 41.4802632,64.5213199 41.4802632,63.9309211 L41.4802632,59.4760691 C41.4772644,56.6237664 39.1194161,54.3121505 36.2100674,54.3092105 Z" id="Shape"></path>
                <path d="M60.1574359,54.3092105 L48.8886168,54.3092105 C45.9792681,54.3121505 43.6214198,56.6237664 43.6184211,59.4760691 L43.6184211,63.9309211 C43.6184211,64.5213199 44.1066748,65 44.7088816,65 C45.3110884,65 45.7993421,64.5213199 45.7993421,63.9309211 L45.7993421,59.4760691 C45.8011141,57.8040296 47.1832728,56.4491057 48.8886168,56.4473684 L60.1574359,56.4473684 C61.8629161,56.4491057 63.2449385,57.8040296 63.2467105,59.4760691 L63.2467105,63.9309211 C63.2467105,64.5213199 63.7349642,65 64.3371711,65 C64.9393779,65 65.4276316,64.5213199 65.4276316,63.9309211 L65.4276316,59.4760691 C65.4246328,56.6237664 63.0667845,54.3121505 60.1574359,54.3092105 Z" id="Shape"></path>
                <path d="M61.7999934,0 L23.7263224,0 C21.9450766,0.0174162679 20.5137886,1.47806968 20.5263985,3.26555024 L20.5263985,19.5933014 C20.5263985,20.1944348 21.0120818,20.6818182 21.6111184,20.6818182 C22.2101551,20.6818182 22.6958384,20.1944348 22.6958384,19.5933014 L22.6958384,6.53110048 L62.8304774,6.53110048 L62.8304774,32.6555024 C62.8444431,33.2412605 62.3837083,33.7279635 61.7999934,33.7440191 L24.7839244,33.7440191 C24.1848878,33.7440191 23.6992044,34.2314025 23.6992044,34.8325359 C23.6992044,35.4336693 24.1848878,35.9210526 24.7839244,35.9210526 L61.7999934,35.9210526 C63.5812392,35.9036364 65.0125272,34.442983 64.9999173,32.6555024 L64.9999173,3.26555024 C65.0125272,1.47806968 63.5812392,0.0174162679 61.7999934,0 Z M62.8307867,4.35406699 L22.6955291,4.35406699 L22.6958384,3.26555024 C22.6818726,2.67979217 23.1426075,2.19308911 23.7263224,2.17703349 L61.7999934,2.17703349 C62.3837083,2.19308911 62.8444431,2.67979217 62.8304774,3.26555024 L62.8307867,4.35406699 Z" id="Shape"></path>
                <path d="M59.6546053,14.1118421 C59.0642064,14.1118421 58.5855263,14.5949408 58.5855263,15.1907895 L58.5855263,30.5657895 C58.5855263,31.1616382 59.0642064,31.6447368 59.6546053,31.6447368 C60.2450041,31.6447368 60.7236842,31.1616382 60.7236842,30.5657895 L60.7236842,15.1907895 C60.7236842,14.5949408 60.2450041,14.1118421 59.6546053,14.1118421 Z" id="Shape"></path>
                <path d="M55.3782895,20.5263158 C54.7878906,20.5263158 54.3092105,21.0241431 54.3092105,21.6381579 L54.3092105,30.5328947 C54.3092105,31.1469095 54.7878906,31.6447368 55.3782895,31.6447368 C55.9686883,31.6447368 56.4473684,31.1469095 56.4473684,30.5328947 L56.4473684,21.6381579 C56.4473684,21.0241431 55.9686883,20.5263158 55.3782895,20.5263158 Z" id="Shape"></path>
                <path d="M51.1019737,18.3881579 C50.5115748,18.3881579 50.0328947,18.882794 50.0328947,19.4928728 L50.0328947,30.5400219 C50.0328947,31.1501007 50.5115748,31.6447368 51.1019737,31.6447368 C51.6923725,31.6447368 52.1710526,31.1501007 52.1710526,30.5400219 L52.1710526,19.4928728 C52.1710526,18.882794 51.6923725,18.3881579 51.1019737,18.3881579 Z" id="Shape"></path>
                <path d="M46.8256579,25.2302632 C46.235259,25.2302632 45.7565789,25.7089433 45.7565789,26.2993421 L45.7565789,30.5756579 C45.7565789,31.1660567 46.235259,31.6447368 46.8256579,31.6447368 C47.4160567,31.6447368 47.8947368,31.1660567 47.8947368,30.5756579 L47.8947368,26.2993421 C47.8947368,25.7089433 47.4160567,25.2302632 46.8256579,25.2302632 Z" id="Shape"></path>
                <path d="M60.6647687,8.7369672 C60.1626187,8.40110892 59.4839786,8.53698633 59.1490298,9.04049981 L55.4181484,14.650922 L51.9713997,12.0593891 C51.490423,11.6938076 50.8049528,11.7885931 50.4403613,12.2708757 C50.3988342,12.325802 50.3626346,12.3844265 50.3321723,12.4462014 L46.0767381,20.9812754 L41.9174719,24.1130306 C41.4345829,24.4761465 41.3367756,25.1629301 41.6989083,25.6471304 C42.0610409,26.1313306 42.7459647,26.2294035 43.2288538,25.8662875 L47.6001267,22.5789307 C47.7378218,22.4772966 47.8501089,22.3448435 47.9279722,22.1921184 L51.7124017,14.6005159 L55.0312907,17.1000028 C55.5140432,17.4631188 56.1991036,17.3651829 56.5612362,16.8809827 C56.5733938,16.8648198 56.585005,16.8482461 56.5962064,16.8315353 L60.9674793,10.2568218 C61.3024281,9.75330833 61.1669187,9.07282548 60.6647687,8.7369672 Z" id="Shape"></path>
                <path d="M39.5253759,8.55263158 L26.3298872,8.55263158 C25.7226198,8.55263158 25.2302632,9.03131168 25.2302632,9.62171053 C25.2302632,10.2121094 25.7226198,10.6907895 26.3298872,10.6907895 L39.5253759,10.6907895 C40.1326433,10.6907895 40.625,10.2121094 40.625,9.62171053 C40.625,9.03131168 40.1326433,8.55263158 39.5253759,8.55263158 Z" id="Shape"></path>
                <path d="M45.5427632,8.55263158 L43.4046053,8.55263158 C42.8142064,8.55263158 42.3355263,9.03131168 42.3355263,9.62171053 C42.3355263,10.2121094 42.8142064,10.6907895 43.4046053,10.6907895 L45.5427632,10.6907895 C46.133162,10.6907895 46.6118421,10.2121094 46.6118421,9.62171053 C46.6118421,9.03131168 46.133162,8.55263158 45.5427632,8.55263158 Z" id="Shape"></path>
            </g>
        </g>
    </g>
</svg>
